src/topics/icons/sourcetree.svg

<svg height="256" preserveAspectRatio="xMidYMid" viewBox="0 0 256 256" width="256" xmlns="http://www.w3.org/2000/svg"><path d="m134.743976 243.115544v-22.228017l55.517296-28.122168c1.333378-.674295 2.168645-2.039827 2.168645-3.532425v-12.725201c5.18611-1.795861 8.657635-6.966586 8.071423-12.659126-.686172-6.642992-6.626225-11.474875-13.271087-10.788721-6.643168.684461-11.475179 6.624356-10.787312 13.269042.496417 4.828494 3.769714 8.686207 8.071424 10.178805v10.294012l-49.770389 25.208129v-20.677816l21.940582-10.150003c1.396065-.642105 2.292325-2.046604 2.295713-3.58664l.042357-34.444955 40.602783-22.80913c1.248665-.699708 2.01955-2.021191 2.01955-3.451103v-9.607857c5.187804-1.790778 8.655941-6.963197 8.069729-12.6591263-.686172-6.6480744-6.627919-11.4782631-13.269393-10.7887202-6.644862.6844602-11.473484 6.6260498-10.789005 13.2707358.499804 4.8251057 3.771408 8.6845137 8.069729 10.1771107v7.293568l-40.596007 22.805742c-1.24697.703097-2.021244 2.017802-2.021244 3.449409l-.042357 34.22979-16.322437 7.544311v-74.431666l34.157843-16.7048966c1.357097-.6556588 2.219472-2.0398272 2.219472-3.549367v-12.7268949c5.18611-1.7958611 8.657635-6.9631973 8.071424-12.662515-.686173-6.6412977-6.62792-11.4714863-13.269393-10.7836377-6.646556.6827661-11.476873 6.6226614-10.789006 13.2724301.494722 4.8251061 3.769714 8.6760422 8.069729 10.1703342v10.2584329l-28.460069 13.9094525v-42.9769892c5.18611-1.7924727 8.661023-6.9665857 8.071423-12.6608207-.682784-6.6429919-6.624531-11.4731806-13.271087-10.7904145-6.641473.6895429-11.47179 6.627744-10.785617 13.27243.494722 4.8234119 3.769714 8.6811248 8.068034 10.1737226v70.0877153l-20.117565-10.570168v-31.8358732c0-1.2283012-.572657-2.3922225-1.550242-3.1376743l-13.7607261-10.5379774c.74886-1.8009437 1.0724624-3.8051925.8572922-5.8822922-.6844784-6.6429919-6.6279194-11.4680979-13.2710871-10.7853319-6.644862.6861545-11.4734843 6.6243556-10.7890059 13.2690417.6844784 6.6463802 6.6262252 11.4765689 13.2727814 10.7921087 1.6891707-.1778919 3.2546608-.6946256 4.6490314-1.4722673l12.6764042 9.7112036v32.2712853c0 1.472267.8166302 2.822551 2.1178169 3.507012l25.9153 13.612966v25.743499l-43.2373472-19.996744.5929887-15.662958c.0576046-1.54173-.7810508-2.971642-2.1500076-3.673044l-19.8193767-10.165252c.2981886-1.274045.4049266-2.614164.2626093-3.986473-.6861727-6.642992-6.6262252-11.4748745-13.2693929-10.7870258-6.644862.6844602-11.4734843 6.6260498-10.7890059 13.2690418.6861726 6.641297 6.6245309 11.469792 13.2710871 10.785332 2.3821204-.242272 4.525351-1.174087 6.2721263-2.565032l18.2132244 9.341866-.5963772 15.781553c-.0609931 1.59425.8471267 3.074989 2.2957134 3.742507l48.9537583 22.641403v18.377081c-.047439.343924-.042356.694625 0 1.043632v54.002899c-4.166169-.044049-8.276428-.311734-12.327388-.786113v-46.417927c0-1.546812-.901342-2.949617-2.305878-3.59511l-30.715121-14.134782c.0762414-.789502.0779357-1.597639-.0084713-2.41933-.6844783-6.642992-6.6245309-11.476569-13.2693929-10.785332-6.6448619.68446-11.4734842 6.622661-10.7890059 13.267347.6861727 6.641298 6.6262252 11.473181 13.2727815 10.788721 2.9649435-.308346 5.562234-1.662019 7.4767404-3.662879l28.4194072 13.07929v42.670337c-53.3910086-10.070376-93.9124681-57.028755-93.9124681-113.300199 0-63.5921192 51.7391115-115.3315552 115.3329141-115.3315552 63.595497 0 115.33122 51.739436 115.33122 115.3315552 0 61.326963-48.12188 111.611073-108.588091 115.114697zm-6.743129-243.115544c-70.5809038 0-128.000847 57.4235058-128.000847 128.000847 0 70.577341 57.4199432 127.995765 128.000847 127.999153 70.580904 0 127.999153-57.421812 127.999153-127.999153 0-70.5773412-57.418249-128.000847-127.999153-128.000847z" fill="#264970"/></svg>

<?xml version="1.0" encoding="UTF-8" standalone="no"?>
<svg width="256px" height="256px" viewBox="0 0 256 256" version="1.1" xmlns="http://www.w3.org/2000/svg" xmlns:xlink="http://www.w3.org/1999/xlink" preserveAspectRatio="xMidYMid">
    <g>
        <path d="M134.743976,243.115544 L134.743976,220.887527 L190.261272,192.765359 C191.59465,192.091064 192.429917,190.725532 192.429917,189.232934 L192.429917,176.507733 C197.616027,174.711872 201.087552,169.541147 200.50134,163.848607 C199.815168,157.205615 193.875115,152.373732 187.230253,153.059886 C180.587085,153.744347 175.755074,159.684242 176.442941,166.328928 C176.939358,171.157422 180.212655,175.015135 184.514365,176.507733 L184.514365,186.801745 L134.743976,212.009874 L134.743976,191.332058 L156.684558,181.182055 C158.080623,180.53995 158.976883,179.135451 158.980271,177.595415 L159.022628,143.15046 L199.625411,120.34133 C200.874076,119.641622 201.644961,118.320139 201.644961,116.890227 L201.644961,107.28237 C206.832765,105.491592 210.300902,100.319173 209.71469,94.6232437 C209.028518,87.9751693 203.086771,83.1449806 196.445297,83.8345235 C189.800435,84.5189837 184.971813,90.4605733 185.656292,97.1052593 C186.156096,101.930365 189.4277,105.789773 193.726021,107.28237 L193.726021,114.575938 L153.130014,137.38168 C151.883044,138.084777 151.10877,139.399482 151.10877,140.831089 L151.066413,175.060879 L134.743976,182.60519 L134.743976,108.173524 L168.901819,91.4686274 C170.258916,90.8129686 171.121291,89.4288002 171.121291,87.9192604 L171.121291,75.1923655 C176.307401,73.3965044 179.778926,68.2291682 179.192715,62.5298505 C178.506542,55.8885528 172.564795,51.0583642 165.923322,51.7462128 C159.276766,52.4289789 154.446449,58.3688742 155.134316,65.0186429 C155.629038,69.843749 158.90403,73.6946851 163.204045,75.1889771 L163.204045,85.44741 L134.743976,99.3568625 L134.743976,56.3798733 C139.930086,54.5874006 143.404999,49.4132876 142.815399,43.7190526 C142.132615,37.0760607 136.190868,32.245872 129.544312,32.9286381 C122.902839,33.618181 118.072522,39.5563821 118.758695,46.2010681 C119.253417,51.02448 122.528409,54.8821929 126.826729,56.3747907 L126.826729,126.462506 L106.709164,115.892338 L106.709164,84.0564648 C106.709164,82.8281636 106.136507,81.6642423 105.158922,80.9187905 L91.3981959,70.3808131 C92.1470559,68.5798694 92.4706583,66.5756206 92.2554881,64.4985209 C91.5710097,57.855529 85.6275687,53.030423 78.984401,53.713189 C72.339539,54.3993435 67.5109167,60.3375446 68.1953951,66.9822307 C68.8798735,73.6286109 74.8216203,78.4587996 81.4681765,77.7743394 C83.1573472,77.5964475 84.7228373,77.0797138 86.1172079,76.3020721 L98.7936121,86.0132757 L98.7936121,118.284561 C98.7936121,119.756828 99.6102423,121.107112 100.911429,121.791573 L126.826729,135.404539 L126.826729,161.148038 L83.5893818,141.151294 L84.1823705,125.488336 C84.2399751,123.946606 83.4013197,122.516694 82.0323629,121.815292 L62.2129862,111.65004 C62.5111748,110.375995 62.6179128,109.035876 62.4755955,107.663567 C61.7894228,101.020575 55.8493703,96.1886925 49.2062026,96.8765412 C42.5613406,97.5610014 37.7327183,103.502591 38.4171967,110.145583 C39.1033693,116.78688 45.0417276,121.615375 51.6882838,120.930915 C54.0704042,120.688643 56.2136348,119.756828 57.9604101,118.365883 L76.1736345,127.707749 L75.5772573,143.489302 C75.5162642,145.083552 76.424384,146.564291 77.8729707,147.231809 L126.826729,169.873212 L126.826729,188.250293 C126.77929,188.594217 126.784373,188.944918 126.826729,189.293925 L126.826729,243.296824 C122.66056,243.252775 118.550301,242.98509 114.499341,242.510711 L114.499341,196.092784 C114.499341,194.545972 113.597999,193.143167 112.193463,192.497674 L81.478342,178.362892 C81.5545834,177.57339 81.5562777,176.765253 81.4698707,175.943562 C80.7853924,169.30057 74.8453398,164.466993 68.2004778,165.15823 C61.5556159,165.84269 56.7269936,171.780891 57.4114719,178.425577 C58.0976446,185.066875 64.0376971,189.898758 70.6842534,189.214298 C73.6491969,188.905952 76.2464874,187.552279 78.1609938,185.551419 L106.580401,198.630709 L106.580401,241.301046 C53.1893924,231.23067 12.6679329,184.272291 12.6679329,128.000847 C12.6679329,64.4087278 64.4070444,12.6692918 128.000847,12.6692918 C191.596344,12.6692918 243.332067,64.4087278 243.332067,128.000847 C243.332067,189.32781 195.210187,239.61192 134.743976,243.115544 L134.743976,243.115544 Z M128.000847,0 C57.4199432,0 0,57.4235058 0,128.000847 C0,198.578188 57.4199432,255.996612 128.000847,256 C198.581751,256 256,198.578188 256,128.000847 C256,57.4235058 198.581751,0 128.000847,0 L128.000847,0 Z" fill="#264970"></path>
    </g>
</svg>
